public/avatar/item1/41.svg

<svg xmlns:xlink="http://www.w3.org/1999/xlink" height="65.4" width="80.15" xmlns="http://www.w3.org/2000/svg"><use height="24.3" transform="translate(7.45 31.8)" width="14.9" xlink:href="#a"/><defs><g id="a"><path d="M1.7 9.55 9.75 23" fill="none" stroke="#000" stroke-linecap="round" stroke-linejoin="round" stroke-width="1.25"/><path d="M-15.1 24.3q-1.1-1.45-2.35-1.2-2.2.45-3.55 5.45l-.4.4q-1.2.15-2-.45-.6-.45-.75-1.3l.05-.2q2.3-7.85 6.5-8.5 3.15-.5 5.55 3.1 2.45 3.65 2.55 8.95.1 6.05-3.15 11.5-.2.2-.4.2-2.5.3-2.95-1.9l.05-.35q2.4-4.7 2.45-9.25.1-4.2-1.6-6.45" fill="#360000" fill-rule="evenodd" transform="translate(24.15 -18)"/><path d="M-13.25 21.7q2.45 3.1 2.65 8.25.25 5.8-2.8 11.3-1.25.1-1.55-1.05 2.45-4.9 2.45-9.7 0-4.2-1.8-6.7-1.7-2.45-3.85-1.55-2.3.95-3.7 5.7-1.15.25-1.25-.8 1.65-6.2 4.7-7.45 2.75-1.15 5.15 2" fill="#7f4a33" fill-rule="evenodd" transform="translate(24.15 -18)"/><path d="M-12.4 23q1.9 3.45 1.85 8.05-.1 5.3-2.85 10.2-.75.25-1.05-.25 4.25-7.45 2.05-18m-10.7 4.15q1.35-5.1 3.7-6.9 2.1-1.6 4.4-.25l-3.9 1q-2.1 1.45-3.9 6.85l-.3-.7" fill="#6b301f" fill-rule="evenodd" transform="translate(24.15 -18)"/><path d="m-16.15 18.05.25-.05q4.45.55 6 5.15.75 2.3.65 4.55 0 .4-.45.5l-.5-.4q-.1-.25-.65-.4-1.45-.35-2.4.85l-.6.15-.3-.55q.3-1.55-1.45-3.7-.75-.95-1.55-.95l-.45-.3q-.85-2.2.2-3.7l1.25-1.15" fill="#360000" fill-rule="evenodd" transform="translate(24.15 -18)"/><path d="M-16.7 22.35q-.55-1.55.05-2.55l.75-.75q5.6.6 5.65 7.55-1.45-.85-2.95.3-1.05-4.25-3.5-4.55" fill="#ffc200" fill-rule="evenodd" transform="translate(24.15 -18)"/><path d="m-16.85 20.25.95-1.2q5.6.6 5.65 7.55l-.05-.05-.35-.1-.75-.1-.8.1q-.3-2.75-1.7-4.45-1.25-1.5-2.75-1.5h-.25v-.15l.05-.05v-.05" fill="#d17600" fill-rule="evenodd" transform="translate(24.15 -18)"/></g></defs></svg>

<?xml version="1.0" encoding="UTF-8" standalone="no"?>
<svg xmlns:xlink="http://www.w3.org/1999/xlink" height="65.4px" width="80.15px" xmlns="http://www.w3.org/2000/svg">
  <g transform="matrix(1.0, 0.0, 0.0, 1.0, 31.6, 13.8)">
    <use height="24.3" transform="matrix(1.0, 0.0, 0.0, 1.0, -24.15, 18.0)" width="14.9" xlink:href="#shape0"/>
  </g>
  <defs>
    <g id="shape0" transform="matrix(1.0, 0.0, 0.0, 1.0, 24.15, -18.0)">
      <path d="M-22.45 27.55 L-14.4 41.0" fill="none" stroke="#000000" stroke-linecap="round" stroke-linejoin="round" stroke-width="1.25"/>
      <path d="M-15.1 24.3 Q-16.2 22.85 -17.45 23.1 -19.65 23.55 -21.0 28.55 L-21.4 28.95 Q-22.6 29.1 -23.4 28.5 -24.0 28.05 -24.15 27.2 L-24.1 27.0 Q-21.8 19.15 -17.6 18.5 -14.45 18.0 -12.05 21.6 -9.6 25.25 -9.5 30.55 -9.4 36.6 -12.65 42.05 -12.85 42.25 -13.05 42.25 -15.55 42.55 -16.0 40.35 L-15.95 40.0 Q-13.55 35.3 -13.5 30.75 -13.4 26.55 -15.1 24.3" fill="#360000" fill-rule="evenodd" stroke="none"/>
      <path d="M-13.25 21.7 Q-10.8 24.8 -10.6 29.95 -10.35 35.75 -13.4 41.25 -14.65 41.35 -14.95 40.2 -12.5 35.3 -12.5 30.5 -12.5 26.3 -14.3 23.8 -16.0 21.35 -18.15 22.25 -20.45 23.2 -21.85 27.95 -23.0 28.2 -23.1 27.15 -21.45 20.95 -18.4 19.7 -15.65 18.55 -13.25 21.7" fill="#7f4a33" fill-rule="evenodd" stroke="none"/>
      <path d="M-12.4 23.0 Q-10.5 26.45 -10.55 31.05 -10.65 36.35 -13.4 41.25 -14.15 41.5 -14.45 41.0 -10.2 33.55 -12.4 23.0" fill="#6b301f" fill-rule="evenodd" stroke="none"/>
      <path d="M-23.1 27.15 Q-21.75 22.05 -19.4 20.25 -17.3 18.65 -15.0 20.0 L-18.9 21.0 Q-21.0 22.45 -22.8 27.85 L-23.1 27.15" fill="#6b301f" fill-rule="evenodd" stroke="none"/>
      <path d="M-16.15 18.05 L-15.9 18.0 Q-11.45 18.55 -9.9 23.15 -9.15 25.45 -9.25 27.7 -9.25 28.1 -9.7 28.2 L-10.2 27.8 Q-10.3 27.55 -10.85 27.4 -12.3 27.05 -13.25 28.25 L-13.85 28.4 -14.15 27.85 Q-13.85 26.3 -15.6 24.15 -16.35 23.2 -17.15 23.2 L-17.6 22.9 Q-18.45 20.7 -17.4 19.2 L-16.15 18.05" fill="#360000" fill-rule="evenodd" stroke="none"/>
      <path d="M-16.7 22.35 Q-17.25 20.8 -16.65 19.8 L-15.9 19.05 Q-10.3 19.65 -10.25 26.6 -11.7 25.75 -13.2 26.9 -14.25 22.65 -16.7 22.35" fill="#ffc200" fill-rule="evenodd" stroke="none"/>
      <path d="M-16.85 20.25 L-15.9 19.05 Q-10.3 19.65 -10.25 26.6 L-10.3 26.55 -10.65 26.45 -11.4 26.35 -12.2 26.45 Q-12.5 23.7 -13.9 22.0 -15.15 20.5 -16.65 20.5 L-16.9 20.5 -16.9 20.35 -16.85 20.3 -16.85 20.25" fill="#d17600" fill-rule="evenodd" stroke="none"/>
    </g>
  </defs>
</svg>
